X:0536
T:The Free Masson's Anthem.
M:3/4
L:1/8
Q:1/4=80 "Slow"
N:last note of first part printed as c4
N:Aird uses a segno instead of a repeat
I: :| S. ||S
Z:Jack Campin * www.campin.me.uk * 2009
K:A Minor
  (A/B/c)B2A2     | (eA)  ^G2AB | cd Td3  (c/d/)| e6            |
  (fe)(ed)(dc)    |  ac    B2c2 | d/e/fe2Td2    | c6           :|
  ^c2  c3       c |  d4      e2 |(fe)(dc)(BA)   |^G4         E2 |
|:^F4     (F/^G/A)|(^G^F)  GAGG |^G2  A2   A/B/c|(BA)  (Bc) (BB)|
   c4     (c/d/e) | (fd````cdBd)|(ec``Bc```Ac   | dB````AB``^GA)|F2 HE4|
  (fe)(ed)(dc)    | BE````^GBde | c/B/A B4      | A6           :|

